public/assets/images/icons/red/export/place.svg

<svg width="16" height="16" xmlns="http://www.w3.org/2000/svg" viewBox="0 0 16 16" shape-rendering="geometricPrecision" fill="#cb1800"><defs><mask id="a"><rect fill="#fff" width="100%" height="100%"/><path d="M13.848-1.1L12.051.695l.286.287A4.455 4.455 0 0 0 9.23 5.236v.987h2.626v-.988c0-.491.191-.954.538-1.302l.03-.03 1.425 1.421 3.212-3.213L13.848-1.1z" fill="#000"/></mask></defs><path d="M13.848-.04l-.736.735.821.821h-.234l-.156.008A3.722 3.722 0 0 0 9.98 5.235v.237h1.126v-.237c0-.691.27-1.343.759-1.833a2.579 2.579 0 0 1 1.833-.759h.3l-.886.887.735.734L16 2.111 13.848-.04z"/><g mask="url(#a)"><path d="M14.017 5.94a5.938 5.938 0 0 0-11.875 0c0 1.172.345 2.262.932 3.184l-.006-.004.041.06c.046.071.096.14.145.209L8.114 16l4.833-6.665.093-.136.025-.036-.005.001a5.902 5.902 0 0 0 .957-3.224zm-5.938 4.567a4.565 4.565 0 1 1 0-9.133 4.565 4.565 0 0 1 0 9.133z"/><circle cx="8.079" cy="5.914" r="2.242"/></g></svg>

<?xml version="1.0"?><!DOCTYPE svg PUBLIC "-//W3C//DTD SVG 1.1//EN" "http://www.w3.org/Graphics/SVG/1.1/DTD/svg11.dtd"><svg width="16px" height="16px" xmlns="http://www.w3.org/2000/svg" viewBox="0 0 16 16" shape-rendering="geometricPrecision" fill="#cb1800"><defs><mask id="export-path"><rect fill="#fff" width="100%" height="100%"/><path d="M13.848-1.1l-1.797,1.795l0.286,0.287c-1.812,0.575-3.107,2.263-3.107,4.254v0.987h2.626 V5.235c0-0.491,0.191-0.954,0.538-1.302c0.01-0.01,0.021-0.02,0.03-0.03l1.425,1.421l3.212-3.213L13.848-1.1z" fill="#000"/></mask></defs><path id="export" display="inline" d="M13.848-0.04l-0.736,0.735l0.821,0.821h-0.234 l-0.156,0.008c-1.978,0.084-3.563,1.714-3.563,3.711v0.237h1.126V5.235c0-0.691,0.27-1.343,0.759-1.833 c0.49-0.489,1.141-0.759,1.833-0.759h0.237V2.643h0.063L13.112,3.53l0.735,0.734L16,2.111L13.848-0.04z" fill="#cb1800"/><g mask="url(#export-path)"><g><path d="M14.017,5.94c0-3.278-2.658-5.938-5.939-5.938c-3.277,0-5.936,2.659-5.936,5.938c0,1.172,0.345,2.262,0.932,3.184 L3.068,9.12l0.041,0.06C3.155,9.251,3.205,9.32,3.254,9.389L8.114,16l4.833-6.665c0.031-0.046,0.063-0.091,0.093-0.136 l0.025-0.036L13.06,9.164C13.663,8.235,14.017,7.129,14.017,5.94z M8.079,10.507c-2.52,0-4.565-2.046-4.565-4.566 c0-2.523,2.045-4.566,4.565-4.566c2.523,0,4.567,2.044,4.567,4.566C12.646,8.461,10.602,10.507,8.079,10.507z"/></g><circle cx="8.079" cy="5.914" r="2.242"/></g></svg>
